X: 3
T: Jump At the Sun
N: RJ	J-50	Gm	jig
C: John Kirkpatrick  \2511972
M: 6/8
R: jig
K: Gm
|: d |\
"Gm"GBd ^c2d | GBd ^c2d | gdd gdd | dcB "D"A3 ||\
"Gm"GBd ^c2d | GBd ^c2d | gdd "Cm"ed=c | "D7"BcA "Gm"G3 :|
|: d |\
"Gm"gdd bag | "D7"add c'ba | "Gm"bag bag | "D"a^fd "D7"e2d ||\
"Gm"gdd bag | "D7"add c'ba | "Gm"gdd "Cm"edc | "D7"BcA "Gm"G2 :|
% text 03/24/99

